packages/icons/svg/Fill/grid.svg

<svg fill="none" height="24" viewBox="0 0 24 24" width="24" xmlns="http://www.w3.org/2000/svg"><path clip-rule="evenodd" d="m5 3h4c1.103 0 2 .897 2 2v4c0 1.103-.897 2-2 2h-4c-1.103 0-2-.897-2-2v-4c0-1.103.897-2 2-2zm10 0h4c1.103 0 2 .897 2 2v4c0 1.103-.897 2-2 2h-4c-1.103 0-2-.897-2-2v-4c0-1.103.897-2 2-2zm-6 9.9999h-4c-1.103 0-2 .897-2 2v4c0 1.103.897 2 2 2h4c1.103 0 2-.897 2-2v-4c0-1.103-.897-2-2-2zm6 0h4c1.103 0 2 .897 2 2v4c0 1.103-.897 2-2 2h-4c-1.103 0-2-.897-2-2v-4c0-1.103.897-2 2-2z" fill="#6b7280" fill-rule="evenodd"/></svg>

<svg width="24" height="24" viewBox="0 0 24 24" fill="none" xmlns="http://www.w3.org/2000/svg">
<g id="Icon/Fill/grid">
<path id="Mask" fill-rule="evenodd" clip-rule="evenodd" d="M5 3H9C10.103 3 11 3.897 11 5V9C11 10.103 10.103 11 9 11H5C3.897 11 3 10.103 3 9V5C3 3.897 3.897 3 5 3ZM15 3H19C20.103 3 21 3.897 21 5V9C21 10.103 20.103 11 19 11H15C13.897 11 13 10.103 13 9V5C13 3.897 13.897 3 15 3ZM9 13H5C3.897 13 3 13.897 3 15V19C3 20.103 3.897 21 5 21H9C10.103 21 11 20.103 11 19V15C11 13.897 10.103 13 9 13ZM15 13H19C20.103 13 21 13.897 21 15V19C21 20.103 20.103 21 19 21H15C13.897 21 13 20.103 13 19V15C13 13.897 13.897 13 15 13Z" fill="#000000"/>
</g>
</svg>
